X:1
T: Colonel W. Marshall of the 79th Regiment of Foot
C:William Marshall
R:Strathspey
Q: 128
K:C
M:4/4
L:1/16
|:EF|G3A GE3 G3A GE3|c3d edcB AGFE D2EF|G3A GE3 G3A Gf3|ec3 g3e d4 c2EF|
G3A GE3 G3A GE3|c3d edcB AGFE D2EF|G3A GE3 G3A Gf3|ec3 g3e d4 c2ef|
g3a ge3 g3a ge3|f2ga agfe f2d2 d2ef|g3a ge3 c3d c3G|Aa3 g3f e4 d2ef|
g3a ge3 g3a ge3|f2ga agfe f2d2 d2ef|c3d cG3 A3c BAGF|E3G cege d4 c2:|
